X:10
T:No.43 The McConnell's Highland
C:highland
M:4/4
L:1/8
K:D
B2 B>A F<A A>B|d>e f>d e>d B>G|B2 B>A F<A A>g|
f>d (3efe d2 =c2|B2 B>A F<A A>B|d>e f>d e>d B>G|
B2 B>A F<A A>B|f>d (3efe d2 d>e||f<a a>f g>a b>g|
a>f d>f e<d B>d|f<a a>f g>a b>g|a>f (3efe d2 d>e|
f<a a>f g>a b>g|a>f d>f e>d B>G|
B2 B>A F<A A>g|f>d (3efe d2 =c2||
